FINK
CUT[GAR FROEHLICH TRET ICH IN DIE WELT]
REG[Europa, Mitteleuropa, Deutschland]
KEY[F0742  16  C 2/4]
MEL[-5_  3_3_1_1_  4_4_2_
    2_  5_1_4_3_  2__0_
    2_  2_.22_34#  5_.54#3
    21  -7_.-71_.-6  -5__0_
    4_  3_2_1_3_  2_.32_
    4_  3_2_1_3_  2__0_
    -5_  3_3_1_1_  4_4_2_
    2_  56421_32  1__0_ //] >>
FCT[Geselligkeits - Lied]
